lending/img/lend/advantages_3.svg

<svg width="51" height="50" viewBox="0 0 51 50" fill="none" xmlns="http://www.w3.org/2000/svg">
<path fill-rule="evenodd" clip-rule="evenodd" d="M32.4162 3.12721H31.384V1.04231C31.384 0.463254 30.9208 0 30.3417 0C29.7627 0 29.2994 0.463244 29.2994 1.04231V3.12721H28.2469C27.6679 3.12721 27.2046 3.59046 27.2046 4.16952V7.28538H4.29423C1.98851 7.28538 0.125 9.15938 0.125 11.4546V20.825C0.125 20.8756 0.128543 20.9254 0.135396 20.974V24.9948C0.135396 25.5739 0.59864 26.0371 1.1777 26.0371H3.26261V28.1213C3.26261 28.7004 3.72585 29.1637 4.30492 29.1637H5.34694V32.2808C5.34694 32.8598 5.81018 33.3231 6.38925 33.3231C6.95777 33.3231 7.43155 32.8598 7.43155 32.2808V29.1637H8.46356C9.04268 29.1637 9.50593 28.6899 9.51646 28.1213V26.0371H11.5902C12.1693 26.0371 12.6325 25.5739 12.6325 24.9948V21.8681H22.0027C22.0164 21.8681 22.03 21.8678 22.0435 21.8673H30.3313V34.3646H1.1777C0.59865 34.3646 0.135396 34.8279 0.135396 35.4069V40.6081V44.7773C0.135396 45.3563 0.59864 45.8196 1.1777 45.8196H2.62573L4.4212 49.4105C4.58966 49.7685 4.95815 49.9896 5.34771 49.9896H44.9135C45.3135 49.9896 45.6715 49.7685 45.84 49.4105L47.6354 45.8196H49.0827C49.6617 45.8196 50.125 45.3564 50.125 44.7773V35.4069C50.125 34.8279 49.6618 34.3646 49.0827 34.3646H45.9556V18.7512H47.5242V18.7513C48.9561 18.7513 50.1248 17.5826 50.1248 16.1507V13.0238C50.1248 11.5919 48.9561 10.4232 47.5242 10.4232H45.9556V8.32769C45.9556 7.74863 45.4923 7.28538 44.9133 7.28538H41.7965V4.16952C41.7965 3.59047 41.3333 3.12721 40.7542 3.12721H39.7125V1.04231C39.7125 0.463254 39.2493 0 38.6702 0C38.0911 0 37.6279 0.463244 37.6279 1.04231V3.12721H36.585C36.0059 3.12721 35.5427 3.59046 35.5427 4.16952V7.28538H33.4585V4.16952C33.4585 3.59047 32.9952 3.12721 32.4162 3.12721ZM23.0556 19.7827H31.3846C31.9637 19.7827 32.4269 20.2459 32.4269 20.825L32.4162 34.3646H43.8711V9.36999H40.789L40.7716 9.37043L40.7542 9.37057H36.585C36.5732 9.37057 36.5614 9.37038 36.5496 9.36999H32.4515C32.4398 9.37038 32.428 9.37057 32.4162 9.37057H28.2469L28.2244 9.37034L28.2116 9.36999H4.30521C3.15759 9.36999 2.22059 10.307 2.22059 11.4546V19.7827H6.38944V16.6565C6.38944 16.0775 6.85269 15.6142 7.43175 15.6142H22.0133C22.5923 15.6142 23.0556 16.0775 23.0556 16.6565V19.7827ZM20.9612 19.7827H8.46366V17.6988H20.9612V19.7827ZM7.41141 21.8679H2.21982V23.9525H4.27603C4.28563 23.9522 4.29526 23.9521 4.30492 23.9521H8.47415C8.48381 23.9521 8.49344 23.9522 8.50304 23.9525H10.5479V21.8681H7.43175C7.42495 21.8681 7.41818 21.868 7.41141 21.8679ZM20.4268 43.735H48.0402V36.4492H44.9134L44.9137 36.4496H31.3737C31.364 36.4496 31.3544 36.4495 31.3448 36.4492H2.22021V39.5658H11.5902C15.0054 39.5658 18.2681 41.1186 20.4268 43.735ZM2.22021 43.735V41.6504H11.5901C13.738 41.6504 15.8226 42.4084 17.4756 43.735H2.22021ZM6.38925 27.0692C6.43844 27.0692 6.4868 27.0726 6.53411 27.079H7.43184V26.0371H5.34723V27.079H6.24439C6.2917 27.0726 6.34005 27.0692 6.38925 27.0692ZM47.5137 16.6665H45.9556V12.5078H47.5137C47.798 12.5078 48.0296 12.7394 48.0296 13.0237V16.1506C48.0296 16.4349 47.798 16.6665 47.5137 16.6665ZM39.7119 7.28538V5.21183H37.6273V7.28538H39.7119ZM31.3843 7.28538H29.2997V5.21183H31.3843V7.28538ZM5.98977 47.905H44.2716L45.3139 45.8204H4.94803L5.98977 47.905ZM34.5008 26.5633C34.5008 28.5742 36.1327 30.2062 38.1437 30.2062C40.1546 30.2062 41.7971 28.5637 41.7865 26.5633C41.7865 24.5523 40.1546 22.9204 38.1437 22.9204C36.1327 22.9204 34.5008 24.5523 34.5008 26.5633ZM36.5854 26.5528C36.5854 25.6999 37.2803 24.9945 38.1437 24.9945C39.007 24.9945 39.7124 25.7 39.7019 26.5528C39.7019 27.4056 39.007 28.111 38.1437 28.111C37.2908 28.111 36.5854 27.4056 36.5854 26.5528Z" fill="#A5FF14"/>
</svg>

<svg width="51" height="50" fill="none" xmlns="http://www.w3.org/2000/svg"><path fill-rule="evenodd" clip-rule="evenodd" d="M32.416 3.127h-1.032V1.042C31.384.463 30.921 0 30.342 0c-.58 0-1.043.463-1.043 1.042v2.085h-1.052c-.58 0-1.042.463-1.042 1.043v3.115H4.295a4.172 4.172 0 00-4.17 4.17v9.37c0 .05.004.1.01.149v4.02c0 .58.464 1.043 1.043 1.043h2.085v2.084c0 .58.463 1.043 1.042 1.043h1.042v3.117c0 .579.463 1.042 1.042 1.042.569 0 1.043-.463 1.043-1.042v-3.117h1.032a1.06 1.06 0 001.052-1.043v-2.084h2.074c.58 0 1.043-.463 1.043-1.042v-3.127H30.33v12.497H1.178c-.58 0-1.043.463-1.043 1.042v9.371c0 .578.464 1.042 1.043 1.042h1.448l1.795 3.59c.169.359.537.58.927.58h39.566c.4 0 .758-.221.926-.58l1.795-3.59h1.448c.579 0 1.042-.464 1.042-1.043v-9.37c0-.58-.463-1.042-1.042-1.042h-3.127V18.75h1.568c1.432 0 2.6-1.168 2.6-2.6v-3.127c0-1.432-1.168-2.6-2.6-2.6h-1.568V8.327c0-.58-.464-1.043-1.043-1.043h-3.116V4.17c0-.58-.464-1.043-1.043-1.043h-1.041V1.042C39.712.463 39.248 0 38.67 0s-1.042.463-1.042 1.042v2.085h-1.043c-.58 0-1.042.463-1.042 1.043v3.115h-2.084V4.17c0-.58-.464-1.043-1.043-1.043zm-9.36 16.656h8.329c.579 0 1.042.463 1.042 1.042l-.01 13.54H43.87V9.37H4.305a2.09 2.09 0 00-2.084 2.085v8.328h4.168v-3.127c0-.578.464-1.042 1.043-1.042h14.581c.58 0 1.043.463 1.043 1.043v3.126zm-2.095 0H8.464v-2.084H20.96v2.084zm-13.55 2.085H2.22v2.085h8.328v-2.085H7.412zm13.016 21.867H48.04v-7.286H2.22v3.117h9.37c3.415 0 6.678 1.553 8.837 4.169zm-18.207 0V41.65h9.37c2.148 0 4.233.758 5.886 2.085H2.22zm4.17-16.666c.048 0 .097.004.144.01h.898v-1.042H5.347v1.042h.897a1.08 1.08 0 01.145-.01zm41.124-10.402h-1.558v-4.16h1.558c.284 0 .516.232.516.517v3.127a.517.517 0 01-.516.515zm-7.802-9.382V5.212h-2.085v2.073h2.085zm-8.328 0H29.3V5.212h2.084v2.073zM5.99 47.905h38.282l1.042-2.085H4.948l1.042 2.085zM34.5 26.563a3.644 3.644 0 003.644 3.643c2.01 0 3.653-1.642 3.642-3.643a3.644 3.644 0 00-7.285 0zm2.085-.01c0-.853.695-1.559 1.559-1.559.863 0 1.568.706 1.558 1.559 0 .853-.695 1.558-1.558 1.558a1.568 1.568 0 01-1.559-1.558z" fill="#A5FF14"/></svg>
